X:46
T:Old Torn Petticoat
Z: id:dc-hornpipe-42
M:C|
L:1/8
K:A Dorian
ed|cABG AGED|EGAB cded|cABG AGED|EGAB A2ed|!
cABG AGED|EGAB cded|cABG AGED|EGAB A2:|!
AB|cdef gedg|eaaf gedB|cdef gedg|eaag a2AB|!
cdef gedg|eaaf gedB|cABG AGED|EGAB A2:|!

